X:0848
T:Edinburgh Volunteer's March.
N:slightly more detailed version (more articulation and dotting) in
N:NLS Inglis MS 305, on the "Embro, Embro" CD as 16army/abc/EV-Aird5.abc
M:C|
L:1/8
Q:1/2=72
I: :: :|
Z:Jack Campin * www.campin.me.uk * 2009
K:G
G2 G>B    d2d2|e>def   g2bg |defg  defg |feag  gfed|
g2 GB     d2d2|e>de>f  g2dg |bagf  e>def|d2d>d d4 :|
d>ed>e {g}fee2|fgfa {b}agg2 |abc'a bgdg |feag  gfed|
g2 G>B    d2d2|d>edc   Bde=f|edec' bagf |g2gg  g4 :|
<end>
<start>
